static/img/kroki/aced15e33078efc2cef5906cf0a31795.svg

<?xml version="1.0" encoding="us-ascii" standalone="no"?><svg xmlns="http://www.w3.org/2000/svg" xmlns:xlink="http://www.w3.org/1999/xlink" contentStyleType="text/css" height="374px" preserveAspectRatio="none" style="width:473px;height:374px;" version="1.1" viewBox="0 0 473 374" width="473px" zoomAndPan="magnify"><defs/><g><!--class azure_postgresql_server_firewall_rule--><g id="elem_azure_postgresql_server_firewall_rule"><rect codeLine="23" fill="#3D176E" height="39.7891" id="azure_postgresql_server_firewall_rule" rx="2.5" ry="2.5" style="stroke:#000D19;stroke-width:0.5;" width="357" x="19.5" y="328.58"/><ellipse cx="34.5" cy="348.4745" fill="#ADD1B2" rx="11" ry="11" style="stroke:#181818;stroke-width:1.0;"/><path d="M37.4688,354.1152 Q36.8906,354.412 36.25,354.5527 Q35.6094,354.7089 34.9063,354.7089 Q32.4063,354.7089 31.0781,353.0683 Q29.7656,351.412 29.7656,348.287 Q29.7656,345.162 31.0781,343.5058 Q32.4063,341.8495 34.9063,341.8495 Q35.6094,341.8495 36.25,342.0058 Q36.9063,342.162 37.4688,342.4589 L37.4688,345.1777 Q36.8438,344.5995 36.25,344.3339 Q35.6563,344.0527 35.0313,344.0527 Q33.6875,344.0527 33,345.1308 Q32.3125,346.1933 32.3125,348.287 Q32.3125,350.3808 33,351.4589 Q33.6875,352.5214 35.0313,352.5214 Q35.6563,352.5214 36.25,352.2558 Q36.8438,351.9745 37.4688,351.3964 L37.4688,354.1152 Z " fill="#000000"/><text fill="#D9B8FF" font-family="Helvetica" font-size="17" lengthAdjust="spacing" textLength="315" x="53.5" y="354.3598">azure_postgresql_server_firewall_rule</text></g><!--class azure_proxy_resource--><g id="elem_azure_proxy_resource"><rect codeLine="26" fill="#3D176E" height="39.7891" id="azure_proxy_resource" rx="2.5" ry="2.5" style="stroke:#000D19;stroke-width:0.5;" width="224" x="7" y="167.79"/><ellipse cx="22" cy="187.6845" fill="#ADD1B2" rx="11" ry="11" style="stroke:#181818;stroke-width:1.0;"/><path d="M24.9688,193.3252 Q24.3906,193.622 23.75,193.7627 Q23.1094,193.9189 22.4063,193.9189 Q19.9063,193.9189 18.5781,192.2783 Q17.2656,190.622 17.2656,187.497 Q17.2656,184.372 18.5781,182.7158 Q19.9063,181.0595 22.4063,181.0595 Q23.1094,181.0595 23.75,181.2158 Q24.4063,181.372 24.9688,181.6689 L24.9688,184.3877 Q24.3438,183.8095 23.75,183.5439 Q23.1563,183.2627 22.5313,183.2627 Q21.1875,183.2627 20.5,184.3408 Q19.8125,185.4033 19.8125,187.497 Q19.8125,189.5908 20.5,190.6689 Q21.1875,191.7314 22.5313,191.7314 Q23.1563,191.7314 23.75,191.4658 Q24.3438,191.1845 24.9688,190.6064 L24.9688,193.3252 Z " fill="#000000"/><text fill="#D9B8FF" font-family="Helvetica" font-size="17" lengthAdjust="spacing" textLength="182" x="41" y="193.5698">azure_proxy_resource</text></g><!--class microsoft_resource--><g id="elem_microsoft_resource"><rect codeLine="29" fill="#3D176E" height="39.7891" id="microsoft_resource" rx="2.5" ry="2.5" style="stroke:#000D19;stroke-width:0.5;" width="200" x="266" y="167.79"/><ellipse cx="281" cy="187.6845" fill="#ADD1B2" rx="11" ry="11" style="stroke:#181818;stroke-width:1.0;"/><path d="M283.9688,193.3252 Q283.3906,193.622 282.75,193.7627 Q282.1094,193.9189 281.4063,193.9189 Q278.9063,193.9189 277.5781,192.2783 Q276.2656,190.622 276.2656,187.497 Q276.2656,184.372 277.5781,182.7158 Q278.9063,181.0595 281.4063,181.0595 Q282.1094,181.0595 282.75,181.2158 Q283.4063,181.372 283.9688,181.6689 L283.9688,184.3877 Q283.3438,183.8095 282.75,183.5439 Q282.1563,183.2627 281.5313,183.2627 Q280.1875,183.2627 279.5,184.3408 Q278.8125,185.4033 278.8125,187.497 Q278.8125,189.5908 279.5,190.6689 Q280.1875,191.7314 281.5313,191.7314 Q282.1563,191.7314 282.75,191.4658 Q283.3438,191.1845 283.9688,190.6064 L283.9688,193.3252 Z " fill="#000000"/><text fill="#D9B8FF" font-family="Helvetica" font-size="17" lengthAdjust="spacing" textLength="158" x="300" y="193.5698">microsoft_resource</text></g><!--class resource--><g id="elem_resource"><rect codeLine="32" fill="#3D176E" height="39.7891" id="resource" rx="2.5" ry="2.5" style="stroke:#000D19;stroke-width:0.5;" width="113" x="309.5" y="7"/><ellipse cx="324.5" cy="26.8945" fill="#ADD1B2" rx="11" ry="11" style="stroke:#181818;stroke-width:1.0;"/><path d="M327.4688,32.5352 Q326.8906,32.832 326.25,32.9727 Q325.6094,33.1289 324.9063,33.1289 Q322.4063,33.1289 321.0781,31.4883 Q319.7656,29.832 319.7656,26.707 Q319.7656,23.582 321.0781,21.9258 Q322.4063,20.2695 324.9063,20.2695 Q325.6094,20.2695 326.25,20.4258 Q326.9063,20.582 327.4688,20.8789 L327.4688,23.5977 Q326.8438,23.0195 326.25,22.7539 Q325.6563,22.4727 325.0313,22.4727 Q323.6875,22.4727 323,23.5508 Q322.3125,24.6133 322.3125,26.707 Q322.3125,28.8008 323,29.8789 Q323.6875,30.9414 325.0313,30.9414 Q325.6563,30.9414 326.25,30.6758 Q326.8438,30.3945 327.4688,29.8164 L327.4688,32.5352 Z " fill="#000000"/><text fill="#D9B8FF" font-family="Helvetica" font-size="17" lengthAdjust="spacing" textLength="71" x="343.5" y="32.7798">resource</text></g><!--reverse link azure_proxy_resource to azure_postgresql_server_firewall_rule--><g id="link_azure_proxy_resource_azure_postgresql_server_firewall_rule"><path codeLine="35" d="M136.546,223.9566 C151.726,254.4766 173.23,297.69 188.44,328.25 " fill="none" id="azure_proxy_resource-backto-azure_postgresql_server_firewall_rule" style="stroke:#FFAF37;stroke-width:2.0;"/><polygon fill="none" points="128.53,207.84,131.1738,226.6286,141.9182,221.2845,128.53,207.84" style="stroke:#FFAF37;stroke-width:2.0;"/></g><!--reverse link microsoft_resource to azure_postgresql_server_firewall_rule--><g id="link_microsoft_resource_azure_postgresql_server_firewall_rule"><path codeLine="36" d="M332.6567,220.2023 C300.3567,250.7223 250.67,297.69 218.34,328.25 " fill="none" id="microsoft_resource-backto-azure_postgresql_server_firewall_rule" style="stroke:#FFAF37;stroke-width:2.0;"/><polygon fill="none" points="345.74,207.84,328.5359,215.8412,336.7775,224.5634,345.74,207.84" style="stroke:#FFAF37;stroke-width:2.0;"/></g><!--reverse link resource to microsoft_resource--><g id="link_resource_microsoft_resource"><path codeLine="37" d="M366,65.05 C366,95.57 366,136.9 366,167.46 " fill="none" id="resource-backto-microsoft_resource" style="stroke:#FFAF37;stroke-width:2.0;"/><polygon fill="none" points="366,47.05,360,65.05,372,65.05,366,47.05" style="stroke:#FFAF37;stroke-width:2.0;"/></g><!--SRC=[bP1FJm8n4CNl-ocQS2PP90eaNc0JenTYnFkcRAVGqEsiCrqGrEykY9hk7q2lytxlpPjP6WK2yi9lHGxv78WZNXbNI9Av61FX9a6B93fQIzqVrCKxTFuYC9KvY7kmQ_0catNYUMcobGDcSHL84vcj5eIbKyTuJzBnNWBd0ognaddiFPbvwI4eeqRpeTPriXxQwQlUu0OQ6982-aRYE5QzKHsvkEhitR_4pEn0zCAdJT53esPZnHTrjkM124es3ltHJtPyb4ePjn3NmUpfs8aSK6K-Mqg5cmEjfULm3NiWGByj86bS1QEXqeDM-E4K76M7rmcvAmdI0jal2FZ5fWoq1agr8TX8QrCgBOYtAFge6WXVj-dUWILb5Jqt6I6ZzgrgTTQQTVlUxNR_rYjgMVOVUytKJ8i-0G00]--></g></svg>

<svg xmlns="http://www.w3.org/2000/svg" width="473" height="374" viewBox="0 0 473 374"><rect width="357" height="39.789" x="19.5" y="328.58" fill="#3D176E" rx="2.5" ry="2.5" style="stroke:#000d19;stroke-width:.5"/><circle cx="34.5" cy="348.474" r="11" fill="#ADD1B2" style="stroke:#181818;stroke-width:1"/><path d="M37.469 354.115q-.578.297-1.219.438-.64.156-1.344.156-2.5 0-3.828-1.64-1.312-1.657-1.312-4.782t1.312-4.781q1.328-1.656 3.828-1.656.703 0 1.344.156.656.156 1.219.453v2.719q-.625-.579-1.219-.844-.594-.281-1.219-.281-1.343 0-2.031 1.078-.687 1.062-.687 3.156t.687 3.172q.688 1.062 2.031 1.062.625 0 1.219-.265.594-.281 1.219-.86z"/><text x="53.5" y="354.36" fill="#D9B8FF" font-family="Helvetica" font-size="17" textLength="315">azure_postgresql_server_firewall_rule</text><rect width="224" height="39.789" x="7" y="167.79" fill="#3D176E" rx="2.5" ry="2.5" style="stroke:#000d19;stroke-width:.5"/><circle cx="22" cy="187.685" r="11" fill="#ADD1B2" style="stroke:#181818;stroke-width:1"/><path d="M24.969 193.325q-.578.297-1.219.438-.64.156-1.344.156-2.5 0-3.828-1.64-1.312-1.657-1.312-4.782t1.312-4.781q1.328-1.656 3.828-1.656.703 0 1.344.156.656.156 1.219.453v2.719q-.625-.578-1.219-.844-.594-.281-1.219-.281-1.343 0-2.031 1.078-.687 1.062-.687 3.156t.687 3.172q.688 1.062 2.031 1.062.625 0 1.219-.265.594-.281 1.219-.86z"/><text x="41" y="193.57" fill="#D9B8FF" font-family="Helvetica" font-size="17" textLength="182">azure_proxy_resource</text><rect width="200" height="39.789" x="266" y="167.79" fill="#3D176E" rx="2.5" ry="2.5" style="stroke:#000d19;stroke-width:.5"/><circle cx="281" cy="187.685" r="11" fill="#ADD1B2" style="stroke:#181818;stroke-width:1"/><path d="M283.969 193.325q-.578.297-1.219.438-.64.156-1.344.156-2.5 0-3.828-1.64-1.312-1.657-1.312-4.782t1.312-4.781q1.328-1.656 3.828-1.656.703 0 1.344.156.656.156 1.219.453v2.719q-.625-.578-1.219-.844-.594-.281-1.219-.281-1.344 0-2.031 1.078-.687 1.062-.687 3.156t.687 3.172q.688 1.062 2.031 1.062.625 0 1.219-.265.594-.281 1.219-.86z"/><text x="300" y="193.57" fill="#D9B8FF" font-family="Helvetica" font-size="17" textLength="158">microsoft_resource</text><rect width="113" height="39.789" x="309.5" y="7" fill="#3D176E" rx="2.5" ry="2.5" style="stroke:#000d19;stroke-width:.5"/><circle cx="324.5" cy="26.895" r="11" fill="#ADD1B2" style="stroke:#181818;stroke-width:1"/><path d="M327.469 32.535q-.578.297-1.219.438-.64.156-1.344.156-2.5 0-3.828-1.64-1.312-1.657-1.312-4.782t1.312-4.781q1.328-1.656 3.828-1.656.703 0 1.344.156.656.156 1.219.453v2.719q-.625-.578-1.219-.844-.594-.281-1.219-.281-1.344 0-2.031 1.078-.687 1.062-.687 3.156t.687 3.172q.688 1.062 2.031 1.062.625 0 1.219-.265.594-.281 1.219-.86z"/><text x="343.5" y="32.78" fill="#D9B8FF" font-family="Helvetica" font-size="17" textLength="71">resource</text><g fill="none"><path d="M136.546 223.957c15.18 30.52 36.684 73.733 51.894 104.293" style="stroke:#ffaf37;stroke-width:2"/><path d="m128.53 207.84 2.644 18.789 10.744-5.344z" style="stroke:#ffaf37;stroke-width:2"/></g><g fill="none"><path d="M332.657 220.202c-32.3 30.52-81.987 77.488-114.317 108.048" style="stroke:#ffaf37;stroke-width:2"/><path d="m345.74 207.84-17.204 8.001 8.241 8.722z" style="stroke:#ffaf37;stroke-width:2"/></g><path fill="none" d="M366 65.05v102.41m0-120.41-6 18h12z" style="stroke:#ffaf37;stroke-width:2"/></svg>
